images/50455484.svg

<?xml version="1.0" encoding="UTF-8"?>
<svg xmlns="http://www.w3.org/2000/svg" xmlns:xlink="http://www.w3.org/1999/xlink" width="300pt" height="300pt" viewBox="0 0 300 300" version="1.1">
<defs>
<g>
<symbol overflow="visible" id="glyph0-0">
<path style="stroke:none;" d="M 0.453125 1.59375 L 0.453125 -6.34375 L 4.953125 -6.34375 L 4.953125 1.59375 Z M 0.953125 1.09375 L 4.453125 1.09375 L 4.453125 -5.84375 L 0.953125 -5.84375 Z M 0.953125 1.09375 "/>
</symbol>
<symbol overflow="visible" id="glyph0-1">
<path style="stroke:none;" d="M 0.890625 -6.5625 L 4.65625 -6.5625 L 4.65625 -5.8125 L 1.765625 -5.8125 L 1.765625 -3.875 L 4.375 -3.875 L 4.375 -3.140625 L 1.765625 -3.140625 L 1.765625 0 L 0.890625 0 Z M 0.890625 -6.5625 "/>
</symbol>
<symbol overflow="visible" id="glyph0-2">
<path style="stroke:none;" d="M 3.546875 -5.953125 C 2.898438 -5.953125 2.382812 -5.710938 2 -5.234375 C 1.625 -4.753906 1.4375 -4.101562 1.4375 -3.28125 C 1.4375 -2.445312 1.625 -1.789062 2 -1.3125 C 2.382812 -0.832031 2.898438 -0.59375 3.546875 -0.59375 C 4.191406 -0.59375 4.703125 -0.832031 5.078125 -1.3125 C 5.453125 -1.789062 5.640625 -2.445312 5.640625 -3.28125 C 5.640625 -4.101562 5.453125 -4.753906 5.078125 -5.234375 C 4.703125 -5.710938 4.191406 -5.953125 3.546875 -5.953125 Z M 3.546875 -6.6875 C 4.460938 -6.6875 5.195312 -6.375 5.75 -5.75 C 6.300781 -5.132812 6.578125 -4.3125 6.578125 -3.28125 C 6.578125 -2.238281 6.300781 -1.410156 5.75 -0.796875 C 5.195312 -0.179688 4.460938 0.125 3.546875 0.125 C 2.617188 0.125 1.878906 -0.179688 1.328125 -0.796875 C 0.773438 -1.410156 0.5 -2.238281 0.5 -3.28125 C 0.5 -4.3125 0.773438 -5.132812 1.328125 -5.75 C 1.878906 -6.375 2.617188 -6.6875 3.546875 -6.6875 Z M 3.546875 -6.6875 "/>
</symbol>
<symbol overflow="visible" id="glyph0-3">
<path style="stroke:none;" d="M 0.890625 -6.5625 L 2.078125 -6.5625 L 4.984375 -1.078125 L 4.984375 -6.5625 L 5.84375 -6.5625 L 5.84375 0 L 4.65625 0 L 1.75 -5.484375 L 1.75 0 L 0.890625 0 Z M 0.890625 -6.5625 "/>
</symbol>
<symbol overflow="visible" id="glyph0-4">
<path style="stroke:none;" d="M 0.890625 -6.5625 L 1.765625 -6.5625 L 1.765625 -3.875 L 5 -3.875 L 5 -6.5625 L 5.890625 -6.5625 L 5.890625 0 L 5 0 L 5 -3.125 L 1.765625 -3.125 L 1.765625 0 L 0.890625 0 Z M 0.890625 -6.5625 "/>
</symbol>
</g>
</defs>
<g id="surface8965">
<rect x="0" y="0" width="300" height="300" style="fill:rgb(100%,100%,100%);fill-opacity:1;stroke:none;"/>
<path style="fill:none;stroke-width:1.2;stroke-linecap:butt;stroke-linejoin:miter;stroke:rgb(20%,80%,80%);stroke-opacity:1;stroke-miterlimit:10;" d="M 252.53125 203.417969 L 250.027344 192.027344 "/>
<path style="fill:none;stroke-width:1.2;stroke-linecap:butt;stroke-linejoin:miter;stroke:rgb(0%,0%,0%);stroke-opacity:1;stroke-miterlimit:10;" d="M 250.027344 192.027344 L 247.527344 180.640625 "/>
<path style=" stroke:none;fill-rule:nonzero;fill:rgb(100%,100%,100%);fill-opacity:1;" d="M 249.53125 197.917969 L 255.53125 197.917969 L 255.53125 208.917969 L 249.53125 208.917969 Z M 249.53125 197.917969 "/>
<g style="fill:rgb(20%,80%,80%);fill-opacity:1;">
  <use xlink:href="#glyph0-1" x="249.53125" y="206.581055"/>
</g>
<path style="fill:none;stroke-width:1.2;stroke-linecap:butt;stroke-linejoin:miter;stroke:rgb(0%,0%,0%);stroke-opacity:1;stroke-miterlimit:10;" d="M 247.527344 180.640625 L 225.296875 173.582031 "/>
<path style="fill:none;stroke-width:1.2;stroke-linecap:butt;stroke-linejoin:miter;stroke:rgb(0%,0%,0%);stroke-opacity:1;stroke-miterlimit:10;" d="M 246.964844 174.703125 L 229.179688 169.058594 "/>
<path style="fill:none;stroke-width:1.2;stroke-linecap:butt;stroke-linejoin:miter;stroke:rgb(0%,0%,0%);stroke-opacity:1;stroke-miterlimit:10;" d="M 264.75 164.917969 L 247.527344 180.640625 "/>
<path style="fill:none;stroke-width:1.2;stroke-linecap:butt;stroke-linejoin:miter;stroke:rgb(0%,0%,0%);stroke-opacity:1;stroke-miterlimit:10;" d="M 225.296875 173.582031 L 220.292969 150.804688 "/>
<path style="fill:none;stroke-width:1.2;stroke-linecap:butt;stroke-linejoin:miter;stroke:rgb(0%,0%,0%);stroke-opacity:1;stroke-miterlimit:10;" d="M 220.292969 150.804688 L 237.519531 135.082031 "/>
<path style="fill:none;stroke-width:1.2;stroke-linecap:butt;stroke-linejoin:miter;stroke:rgb(0%,0%,0%);stroke-opacity:1;stroke-miterlimit:10;" d="M 218.316406 145.179688 L 232.097656 132.601562 "/>
<path style="fill:none;stroke-width:1.2;stroke-linecap:butt;stroke-linejoin:miter;stroke:rgb(0%,0%,0%);stroke-opacity:1;stroke-miterlimit:10;" d="M 220.292969 150.804688 L 198.066406 143.75 "/>
<path style="fill:none;stroke-width:1.2;stroke-linecap:butt;stroke-linejoin:miter;stroke:rgb(0%,0%,0%);stroke-opacity:1;stroke-miterlimit:10;" d="M 237.519531 135.082031 L 259.746094 142.140625 "/>
<path style="fill:none;stroke-width:1.2;stroke-linecap:butt;stroke-linejoin:miter;stroke:rgb(0%,0%,0%);stroke-opacity:1;stroke-miterlimit:10;" d="M 237.519531 135.082031 L 232.511719 112.304688 "/>
<path style="fill:none;stroke-width:1.2;stroke-linecap:butt;stroke-linejoin:miter;stroke:rgb(0%,0%,0%);stroke-opacity:1;stroke-miterlimit:10;" d="M 259.746094 142.140625 L 264.75 164.917969 "/>
<path style="fill:none;stroke-width:1.2;stroke-linecap:butt;stroke-linejoin:miter;stroke:rgb(0%,0%,0%);stroke-opacity:1;stroke-miterlimit:10;" d="M 254.886719 145.59375 L 258.890625 163.816406 "/>
<path style="fill:none;stroke-width:1.2;stroke-linecap:butt;stroke-linejoin:miter;stroke:rgb(0%,0%,0%);stroke-opacity:1;stroke-miterlimit:10;" d="M 234.363281 114.332031 L 242.976562 106.46875 "/>
<path style="fill:none;stroke-width:1.2;stroke-linecap:butt;stroke-linejoin:miter;stroke:rgb(100%,0%,0%);stroke-opacity:1;stroke-miterlimit:10;" d="M 242.976562 106.46875 L 251.585938 98.609375 "/>
<path style="fill:none;stroke-width:1.2;stroke-linecap:butt;stroke-linejoin:miter;stroke:rgb(0%,0%,0%);stroke-opacity:1;stroke-miterlimit:10;" d="M 230.664062 110.277344 L 239.277344 102.417969 "/>
<path style="fill:none;stroke-width:1.2;stroke-linecap:butt;stroke-linejoin:miter;stroke:rgb(100%,0%,0%);stroke-opacity:1;stroke-miterlimit:10;" d="M 239.277344 102.417969 L 247.886719 94.554688 "/>
<path style="fill:none;stroke-width:1.2;stroke-linecap:butt;stroke-linejoin:miter;stroke:rgb(0%,0%,0%);stroke-opacity:1;stroke-miterlimit:10;" d="M 232.511719 112.304688 L 221.398438 108.777344 "/>
<path style="fill:none;stroke-width:1.2;stroke-linecap:butt;stroke-linejoin:miter;stroke:rgb(0%,0%,100%);stroke-opacity:1;stroke-miterlimit:10;" d="M 221.398438 108.777344 L 210.285156 105.25 "/>
<path style=" stroke:none;fill-rule:nonzero;fill:rgb(100%,100%,100%);fill-opacity:1;" d="M 245.738281 91.082031 L 253.738281 91.082031 L 253.738281 102.082031 L 245.738281 102.082031 Z M 245.738281 91.082031 "/>
<g style="fill:rgb(100%,0%,0%);fill-opacity:1;">
  <use xlink:href="#glyph0-2" x="245.738281" y="99.745117"/>
</g>
<path style="fill:none;stroke-width:1.2;stroke-linecap:butt;stroke-linejoin:miter;stroke:rgb(0%,0%,100%);stroke-opacity:1;stroke-miterlimit:10;" d="M 210.285156 105.25 L 201.671875 113.109375 "/>
<path style="fill:none;stroke-width:1.2;stroke-linecap:butt;stroke-linejoin:miter;stroke:rgb(0%,0%,0%);stroke-opacity:1;stroke-miterlimit:10;" d="M 201.671875 113.109375 L 193.0625 120.972656 "/>
<path style=" stroke:none;fill-rule:nonzero;fill:rgb(100%,100%,100%);fill-opacity:1;" d="M 203.285156 99.75 L 217.285156 99.75 L 217.285156 110.75 L 203.285156 110.75 Z M 203.285156 99.75 "/>
<g style="fill:rgb(0%,0%,100%);fill-opacity:1;">
  <use xlink:href="#glyph0-3" x="203.285156" y="108.413086"/>
  <use xlink:href="#glyph0-4" x="210.262695" y="108.413086"/>
</g>
<path style="fill:none;stroke-width:1.2;stroke-linecap:butt;stroke-linejoin:miter;stroke:rgb(0%,0%,0%);stroke-opacity:1;stroke-miterlimit:10;" d="M 193.890625 118.355469 L 182.777344 114.828125 "/>
<path style="fill:none;stroke-width:1.2;stroke-linecap:butt;stroke-linejoin:miter;stroke:rgb(100%,0%,0%);stroke-opacity:1;stroke-miterlimit:10;" d="M 182.777344 114.828125 L 171.664062 111.300781 "/>
<path style="fill:none;stroke-width:1.2;stroke-linecap:butt;stroke-linejoin:miter;stroke:rgb(0%,0%,0%);stroke-opacity:1;stroke-miterlimit:10;" d="M 192.230469 123.585938 L 181.117188 120.058594 "/>
<path style="fill:none;stroke-width:1.2;stroke-linecap:butt;stroke-linejoin:miter;stroke:rgb(100%,0%,0%);stroke-opacity:1;stroke-miterlimit:10;" d="M 181.117188 120.058594 L 170.003906 116.53125 "/>
<path style="fill:none;stroke-width:1.2;stroke-linecap:butt;stroke-linejoin:miter;stroke:rgb(0%,0%,0%);stroke-opacity:1;stroke-miterlimit:10;" d="M 193.0625 120.972656 L 198.066406 143.75 "/>
<path style=" stroke:none;fill-rule:nonzero;fill:rgb(100%,100%,100%);fill-opacity:1;" d="M 162.832031 108.417969 L 170.832031 108.417969 L 170.832031 119.417969 L 162.832031 119.417969 Z M 162.832031 108.417969 "/>
<g style="fill:rgb(100%,0%,0%);fill-opacity:1;">
  <use xlink:href="#glyph0-2" x="162.832031" y="117.081055"/>
</g>
<path style="fill:none;stroke-width:1.2;stroke-linecap:butt;stroke-linejoin:miter;stroke:rgb(0%,0%,0%);stroke-opacity:1;stroke-miterlimit:10;" d="M 198.066406 143.75 L 180.839844 159.472656 "/>
<path style="fill:none;stroke-width:1.2;stroke-linecap:butt;stroke-linejoin:miter;stroke:rgb(0%,0%,0%);stroke-opacity:1;stroke-miterlimit:10;" d="M 192.644531 141.269531 L 178.863281 153.847656 "/>
<path style="fill:none;stroke-width:1.2;stroke-linecap:butt;stroke-linejoin:miter;stroke:rgb(0%,0%,0%);stroke-opacity:1;stroke-miterlimit:10;" d="M 180.839844 159.472656 L 169.726562 155.945312 "/>
<path style="fill:none;stroke-width:1.2;stroke-linecap:butt;stroke-linejoin:miter;stroke:rgb(0%,0%,100%);stroke-opacity:1;stroke-miterlimit:10;" d="M 169.726562 155.945312 L 158.613281 152.417969 "/>
<path style="fill:none;stroke-width:1.2;stroke-linecap:butt;stroke-linejoin:miter;stroke:rgb(0%,0%,100%);stroke-opacity:1;stroke-miterlimit:10;" d="M 158.613281 152.417969 L 150 160.277344 "/>
<path style="fill:none;stroke-width:1.2;stroke-linecap:butt;stroke-linejoin:miter;stroke:rgb(0%,0%,0%);stroke-opacity:1;stroke-miterlimit:10;" d="M 150 160.277344 L 141.386719 168.140625 "/>
<path style=" stroke:none;fill-rule:nonzero;fill:rgb(100%,100%,100%);fill-opacity:1;" d="M 151.613281 146.917969 L 165.613281 146.917969 L 165.613281 157.917969 L 151.613281 157.917969 Z M 151.613281 146.917969 "/>
<g style="fill:rgb(0%,0%,100%);fill-opacity:1;">
  <use xlink:href="#glyph0-3" x="151.613281" y="155.581055"/>
  <use xlink:href="#glyph0-4" x="158.59082" y="155.581055"/>
</g>
<path style="fill:none;stroke-width:1.2;stroke-linecap:butt;stroke-linejoin:miter;stroke:rgb(0%,0%,0%);stroke-opacity:1;stroke-miterlimit:10;" d="M 141.386719 168.140625 L 119.160156 161.085938 "/>
<path style="fill:none;stroke-width:1.2;stroke-linecap:butt;stroke-linejoin:miter;stroke:rgb(0%,0%,0%);stroke-opacity:1;stroke-miterlimit:10;" d="M 119.160156 161.085938 L 114.15625 138.308594 "/>
<path style="fill:none;stroke-width:1.2;stroke-linecap:butt;stroke-linejoin:miter;stroke:rgb(0%,0%,0%);stroke-opacity:1;stroke-miterlimit:10;" d="M 113.300781 159.984375 L 109.296875 141.761719 "/>
<path style="fill:none;stroke-width:1.2;stroke-linecap:butt;stroke-linejoin:miter;stroke:rgb(0%,0%,0%);stroke-opacity:1;stroke-miterlimit:10;" d="M 101.933594 176.808594 L 119.160156 161.085938 "/>
<path style="fill:none;stroke-width:1.2;stroke-linecap:butt;stroke-linejoin:miter;stroke:rgb(0%,0%,0%);stroke-opacity:1;stroke-miterlimit:10;" d="M 114.15625 138.308594 L 91.925781 131.25 "/>
<path style="fill:none;stroke-width:1.2;stroke-linecap:butt;stroke-linejoin:miter;stroke:rgb(0%,0%,0%);stroke-opacity:1;stroke-miterlimit:10;" d="M 91.925781 131.25 L 89.425781 119.863281 "/>
<path style="fill:none;stroke-width:1.2;stroke-linecap:butt;stroke-linejoin:miter;stroke:rgb(100%,0%,0%);stroke-opacity:1;stroke-miterlimit:10;" d="M 89.425781 119.863281 L 86.921875 108.472656 "/>
<path style="fill:none;stroke-width:1.2;stroke-linecap:butt;stroke-linejoin:miter;stroke:rgb(0%,0%,0%);stroke-opacity:1;stroke-miterlimit:10;" d="M 91.925781 131.25 L 74.703125 146.972656 "/>
<path style="fill:none;stroke-width:1.2;stroke-linecap:butt;stroke-linejoin:miter;stroke:rgb(0%,0%,0%);stroke-opacity:1;stroke-miterlimit:10;" d="M 93.902344 136.875 L 80.125 149.453125 "/>
<path style=" stroke:none;fill-rule:nonzero;fill:rgb(100%,100%,100%);fill-opacity:1;" d="M 79.921875 102.972656 L 94.921875 102.972656 L 94.921875 113.972656 L 79.921875 113.972656 Z M 79.921875 102.972656 "/>
<g style="fill:rgb(100%,0%,0%);fill-opacity:1;">
  <use xlink:href="#glyph0-4" x="79.921875" y="111.635742"/>
  <use xlink:href="#glyph0-2" x="86.936523" y="111.635742"/>
</g>
<path style="fill:none;stroke-width:1.2;stroke-linecap:butt;stroke-linejoin:miter;stroke:rgb(0%,0%,0%);stroke-opacity:1;stroke-miterlimit:10;" d="M 74.703125 146.972656 L 63.589844 143.445312 "/>
<path style="fill:none;stroke-width:1.2;stroke-linecap:butt;stroke-linejoin:miter;stroke:rgb(100%,0%,0%);stroke-opacity:1;stroke-miterlimit:10;" d="M 63.589844 143.445312 L 52.472656 139.917969 "/>
<path style="fill:none;stroke-width:1.2;stroke-linecap:butt;stroke-linejoin:miter;stroke:rgb(0%,0%,0%);stroke-opacity:1;stroke-miterlimit:10;" d="M 74.703125 146.972656 L 79.707031 169.753906 "/>
<path style="fill:none;stroke-width:1.2;stroke-linecap:butt;stroke-linejoin:miter;stroke:rgb(100%,0%,0%);stroke-opacity:1;stroke-miterlimit:10;" d="M 52.472656 139.917969 L 43.863281 147.78125 "/>
<path style="fill:none;stroke-width:1.2;stroke-linecap:butt;stroke-linejoin:miter;stroke:rgb(0%,0%,0%);stroke-opacity:1;stroke-miterlimit:10;" d="M 43.863281 147.78125 L 35.25 155.640625 "/>
<path style=" stroke:none;fill-rule:nonzero;fill:rgb(100%,100%,100%);fill-opacity:1;" d="M 48.472656 134.417969 L 56.472656 134.417969 L 56.472656 145.417969 L 48.472656 145.417969 Z M 48.472656 134.417969 "/>
<g style="fill:rgb(100%,0%,0%);fill-opacity:1;">
  <use xlink:href="#glyph0-2" x="48.472656" y="143.081055"/>
</g>
<path style="fill:none;stroke-width:1.2;stroke-linecap:butt;stroke-linejoin:miter;stroke:rgb(0%,0%,0%);stroke-opacity:1;stroke-miterlimit:10;" d="M 79.707031 169.753906 L 101.933594 176.808594 "/>
<path style="fill:none;stroke-width:1.2;stroke-linecap:butt;stroke-linejoin:miter;stroke:rgb(0%,0%,0%);stroke-opacity:1;stroke-miterlimit:10;" d="M 83.589844 165.226562 L 101.371094 170.871094 "/>
</g>
</svg>

<svg xmlns="http://www.w3.org/2000/svg" xmlns:xlink="http://www.w3.org/1999/xlink" width="300pt" height="300pt" viewBox="0 0 300 300"><defs><symbol overflow="visible"><path d="M.453 1.594v-7.938h4.5v7.938zm.5-.5h3.5v-6.938h-3.5zm0 0"/></symbol><symbol overflow="visible" id="a"><path d="M.89-6.563h3.766v.75h-2.89v1.938h2.61v.734h-2.61V0H.89zm0 0"/></symbol><symbol overflow="visible" id="b"><path d="M3.547-5.953c-.65 0-1.164.242-1.547.72-.375.48-.563 1.13-.563 1.952 0 .835.188 1.49.563 1.967.383.48.898.72 1.547.72.644 0 1.156-.24 1.53-.72.376-.476.564-1.132.564-1.968 0-.822-.187-1.474-.562-1.954-.375-.477-.887-.72-1.53-.72zm0-.734c.914 0 1.648.312 2.203.937.55.617.828 1.438.828 2.47 0 1.042-.277 1.87-.828 2.483-.555.617-1.29.922-2.203.922-.93 0-1.668-.305-2.22-.922C.774-1.41.5-2.237.5-3.28c0-1.033.273-1.853.828-2.47.55-.625 1.29-.938 2.22-.938zm0 0"/></symbol><symbol overflow="visible" id="c"><path d="M.89-6.563H2.08l2.906 5.485v-5.484h.86V0H4.656L1.75-5.484V0H.89zm0 0"/></symbol><symbol overflow="visible" id="d"><path d="M.89-6.563h.876v2.688H5v-2.688h.89V0H5v-3.125H1.766V0H.89zm0 0"/></symbol></defs><g><path fill="#fff" d="M0 0h300v300H0z"/><path d="M252.53 203.418l-2.503-11.39" stroke-width="1.2" stroke="#3cc" stroke-miterlimit="10" fill="none"/><path d="M250.027 192.027l-2.5-11.386" stroke-width="1.2" stroke="#000" stroke-miterlimit="10" fill="none"/><path d="M249.53 197.918h6v11h-6zm0 0" fill="#fff"/><use xlink:href="#a" x="249.531" y="206.581" fill="#3cc"/><path d="M247.527 180.64l-22.23-7.058M246.965 174.703l-17.785-5.644M264.75 164.918l-17.223 15.723M225.297 173.582l-5.004-22.777M220.293 150.805l17.227-15.723M218.316 145.18l13.782-12.578M220.293 150.805l-22.227-7.055M237.52 135.082l22.226 7.06M237.52 135.082l-5.008-22.777M259.746 142.14l5.004 22.778M254.887 145.594l4.004 18.222M234.363 114.332l8.614-7.863" stroke-width="1.2" stroke="#000" stroke-miterlimit="10" fill="none"/><path d="M242.977 106.47l8.61-7.86" stroke-width="1.2" stroke="#f00" stroke-miterlimit="10" fill="none"/><path d="M230.664 110.277l8.613-7.86" stroke-width="1.2" stroke="#000" stroke-miterlimit="10" fill="none"/><path d="M239.277 102.418l8.61-7.863" stroke-width="1.2" stroke="#f00" stroke-miterlimit="10" fill="none"/><path d="M232.512 112.305l-11.114-3.528" stroke-width="1.2" stroke="#000" stroke-miterlimit="10" fill="none"/><path d="M221.398 108.777l-11.113-3.527" stroke-width="1.2" stroke="#00f" stroke-miterlimit="10" fill="none"/><path d="M245.738 91.082h8v11h-8zm0 0" fill="#fff"/><use xlink:href="#b" x="245.738" y="99.745" fill="#f00"/><path d="M210.285 105.25l-8.613 7.86" stroke-width="1.2" stroke="#00f" stroke-miterlimit="10" fill="none"/><path d="M201.672 113.11l-8.61 7.863" stroke-width="1.2" stroke="#000" stroke-miterlimit="10" fill="none"/><path d="M203.285 99.75h14v11h-14zm0 0" fill="#fff"/><g fill="#00f"><use xlink:href="#c" x="203.285" y="108.413"/><use xlink:href="#d" x="210.263" y="108.413"/></g><path d="M193.89 118.355l-11.113-3.527" stroke-width="1.2" stroke="#000" stroke-miterlimit="10" fill="none"/><path d="M182.777 114.828l-11.113-3.527" stroke-width="1.2" stroke="#f00" stroke-miterlimit="10" fill="none"/><path d="M192.23 123.586l-11.113-3.527" stroke-width="1.2" stroke="#000" stroke-miterlimit="10" fill="none"/><path d="M181.117 120.06l-11.113-3.53" stroke-width="1.2" stroke="#f00" stroke-miterlimit="10" fill="none"/><path d="M193.063 120.973l5.003 22.777" stroke-width="1.2" stroke="#000" stroke-miterlimit="10" fill="none"/><path d="M162.832 108.418h8v11h-8zm0 0" fill="#fff"/><use xlink:href="#b" x="162.832" y="117.081" fill="#f00"/><path d="M198.066 143.75l-17.226 15.723M192.645 141.27l-13.782 12.578M180.84 159.473l-11.113-3.528" stroke-width="1.2" stroke="#000" stroke-miterlimit="10" fill="none"/><path d="M169.727 155.945l-11.114-3.527M158.613 152.418l-8.613 7.86" stroke-width="1.2" stroke="#00f" stroke-miterlimit="10" fill="none"/><path d="M150 160.277l-8.613 7.864" stroke-width="1.2" stroke="#000" stroke-miterlimit="10" fill="none"/><path d="M151.613 146.918h14v11h-14zm0 0" fill="#fff"/><g fill="#00f"><use xlink:href="#c" x="151.613" y="155.581"/><use xlink:href="#d" x="158.591" y="155.581"/></g><path d="M141.387 168.14l-22.227-7.054M119.16 161.086l-5.004-22.777M113.3 159.984l-4.003-18.222M101.934 176.81l17.226-15.724M114.156 138.31l-22.23-7.06M91.926 131.25l-2.5-11.387" stroke-width="1.2" stroke="#000" stroke-miterlimit="10" fill="none"/><path d="M89.426 119.863l-2.504-11.39" stroke-width="1.2" stroke="#f00" stroke-miterlimit="10" fill="none"/><path d="M91.926 131.25l-17.223 15.723M93.902 136.875l-13.777 12.578" stroke-width="1.2" stroke="#000" stroke-miterlimit="10" fill="none"/><path d="M79.922 102.973h15v11h-15zm0 0" fill="#fff"/><g fill="#f00"><use xlink:href="#d" x="79.922" y="111.636"/><use xlink:href="#b" x="86.937" y="111.636"/></g><path d="M74.703 146.973l-11.113-3.528" stroke-width="1.2" stroke="#000" stroke-miterlimit="10" fill="none"/><path d="M63.59 143.445l-11.117-3.527" stroke-width="1.2" stroke="#f00" stroke-miterlimit="10" fill="none"/><path d="M74.703 146.973l5.004 22.78" stroke-width="1.2" stroke="#000" stroke-miterlimit="10" fill="none"/><path d="M52.473 139.918l-8.61 7.863" stroke-width="1.2" stroke="#f00" stroke-miterlimit="10" fill="none"/><path d="M43.863 147.78l-8.613 7.86" stroke-width="1.2" stroke="#000" stroke-miterlimit="10" fill="none"/><path d="M48.473 134.418h8v11h-8zm0 0" fill="#fff"/><use xlink:href="#b" x="48.473" y="143.081" fill="#f00"/><path d="M79.707 169.754l22.227 7.055M83.59 165.227l17.78 5.644" stroke-width="1.2" stroke="#000" stroke-miterlimit="10" fill="none"/></g></svg>
